; generated by SuperSlicer 2.4 on 2023-05-04 at 22:38:17 UTC

; 

; external perimeters extrusion width = 0.45mm
; perimeters extrusion width = 0.45mm
; infill extrusion width = 0.45mm
; solid infill extrusion width = 0.45mm
; top infill extrusion width = 0.40mm
; support material extrusion width = 0.38mm
; first layer extrusion width = 0.42mm

; object:{"name":"lid","id":"lid.stl id:0 copy 0","object_center":[77.425664,75.938202,0.000000],"boundingbox_center":[77.425664,75.938202,10.373567],"boundingbox_size":[59.997414,63.104389,20.747134]}
; Total objects to print: 1
M486 T1
; plater:{"center":[77.425664,75.938202,0.000000],"boundingbox_center":[77.425664,75.938202,10.373567],"boundingbox_size":[59.997414,63.104389,20.747134]}

M140 S60 ; set bed temperature
;TYPE:Custom
G21 ;metric values
G90 ;absolute positioning
M82 ;set extruder to absolute mode
M107 ;start with the fan off
M117 Homing X/Y ...
G28 X0 Y0 ;move X/Y to min endstops
M117 Homing Z ...
G28 Z0 ;move Z to min endstops
G1 Z15.0 F240 ;move the platform down 15mm
M117 Heating ...
M104 S210
 ; set extruder temp
M109 S210
 ; wait for extruder temp
M117 Start cleaning ...
G92 E0 ;zero the extruded length
G1 F200 E10 ;extrude 10mm of feed stock
G92 E0 ;zero the extruded length again
M117 Intro line ...
G1 Z2.0 F3000 ; Move Z Axis up little to prevent scratching of Heat Bed
G1 X0.1 Y20 Z0.2 F5000.0 ; Move to start position
G1 X0.1 Y200.0 Z0.2 F1500.0 E15 ; Draw the first line
G1 X0.4 Y200.0 Z0.2 F5000.0 ; Move to side a little
G1 X0.4 Y20 Z0.30.2 F1500.0 E30 ; Draw the second line
G92 E0 ; Reset Extruder
G1 E-1 F500 ; Retract filiment by 1 mm
G1 Z2.0 F3000 ; Move Z Axis up little to prevent scratching of Heat Bed
G1 X5 Y20 Z0.3 F240 ; Move over to prevent blob squish
G92 E0 ; Reset Extruder
M117 Printing...
M107
G21 ; set units to millimeters
G90 ; use absolute coordinates
M83 ; use relative distances for extrusion
; Filament gcode
;_TOOLCHANGE 0
M190 S60 ; set bed temperature and wait for it to be reached
M107
;LAYER_CHANGE
;Z:0.2
;HEIGHT:0.2
; BEFORE_LAYER_CHANGE 0 @ 0.2mm
G1 Z0.2 F10200
; AFTER_LAYER_CHANGE 0 @ 0.2mm
G92 E0
G1 E-7 F1800
G1 Z0.4 F10200
M204 P500 T500
G1 X45.512 Y51.583
G1 Z0.2
G1 E7 F1800
;TYPE:Skirt
;WIDTH:0.52
G1 X44.508 Y52.469 E0.05312
G1 X41.692 Y58.1 E0.24975
G1 X41.456 Y59.101 E0.0408
G1 X41.456 Y89.96 E1.22415
G1 X41.692 Y90.961 E0.0408
G1 X44.508 Y96.592 E0.24975
G1 X44.927 Y97.174 E0.02845
G1 X53.374 Y105.621 E0.47388
G1 X62.162 Y111.532 E0.42014
G1 X63.404 Y111.908 E0.05148
G1 X80.561 Y111.906 E0.6806
G1 X94.713 Y109.046 E0.57276
G1 X95.264 Y108.856 E0.02312
G1 X100.895 Y106.04 E0.24975
G1 X101.477 Y105.621 E0.02845
G1 X109.924 Y97.174 E0.47388
G1 X110.343 Y96.592 E0.02845
G1 X113.159 Y90.961 E0.24975
G1 X113.395 Y89.96 E0.0408
G1 X113.395 Y59.101 E1.22415
G1 X113.159 Y58.1 E0.0408
G1 X110.343 Y52.469 E0.24975
G1 X109.085 Y51.358 E0.06658
G1 X86.743 Y43.522 E0.93921
G1 X84.786 Y42.998 E0.08035
G1 X82.732 Y42.587 E0.08312
G1 X80.725 Y42.316 E0.08033
G1 X77.763 Y42.149 E0.11769
G1 X75.668 Y42.195 E0.08312
G1 X72.716 Y42.493 E0.11769
G1 X70.723 Y42.851 E0.08033
G1 X68.689 Y43.353 E0.08312
G1 X66.785 Y43.953 E0.0792
G1 X45.766 Y51.358 E0.88402
G1 X45.557 Y51.543 E0.01107
G1 E-4.9
;WIPE_START
G1 F8160
G1 X44.508 Y52.469 E-0.29318
G1 X41.692 Y58.1 E-1.31936
G1 X41.456 Y59.101 E-0.21556
G1 X41.456 Y59.897 E-0.1669
;WIPE_END
G1 E-0.105 F1800
G1 Z0.4 F10200
; printing object lid.stl id:0 copy 0
M486 S0
; acceleration to travel
G1 X45.953 Y54.178
; decel to extrusion
G1 X46.51 Y53.47
; end travel
G1 Z0.2
G1 E7 F1800
;TYPE:Support material
;WIDTH:0.42
G1 X58.597 Y53.47 E0.37898
G1 X57.273 Y55.2 E0.0683
G1 X57.66 Y55.331 E0.0128
G1 X57.66 Y56.285 E0.02991
G1 X60.588 Y56.285 E0.09182
G1 X60.588 Y53.47 E0.08828
G1 X63.404 Y53.47 E0.08828
G1 X63.404 Y50.654 E0.08828
G1 X91.447 Y50.654 E0.87928
G1 X91.447 Y53.47 E0.08828
G1 X94.263 Y53.47 E0.08828
G1 X94.263 Y56.285 E0.08828
G1 X97.191 Y56.285 E0.09182
G1 X97.191 Y55.339 E0.02967
G1 X97.641 Y55.183 E0.01492
G1 X96.38 Y53.47 E0.06668
G1 X108.341 Y53.47 E0.37502
G1 X108.341 Y59.101 E0.17656
G1 X111.157 Y59.101 E0.08828
G1 X111.157 Y89.96 E0.96756
G1 X108.341 Y89.96 E0.08828
G1 X108.341 Y95.591 E0.17656
G1 X105.525 Y95.591 E0.08828
G1 X105.525 Y98.407 E0.08828
G1 X102.71 Y98.407 E0.08828
G1 X102.71 Y101.222 E0.08828
G1 X99.894 Y101.222 E0.08828
G1 X99.894 Y104.038 E0.08828
G1 X94.263 Y104.038 E0.17656
G1 X94.263 Y106.854 E0.08828
G1 X88.536 Y106.854 E0.17955
G1 X88.806 Y106.572 E0.01223
G1 X88.788 Y105.765 E0.02529
G1 X88.77 Y104.941 E0.02585
G1 X88.37 Y104.558 E0.01738
G1 X77.844 Y104.801 E0.33012
G1 X77.461 Y105.201 E0.01735
G1 X77.497 Y106.81 E0.05047
G1 X77.896 Y107.193 E0.01735
G1 X80.505 Y107.138 E0.0818
G1 X80.561 Y109.668 E0.07933
G1 X63.404 Y109.669 E0.53794
G1 X63.404 Y106.854 E0.08829
G1 X60.588 Y106.854 E0.08828
G1 X60.588 Y104.038 E0.08828
G1 X54.957 Y104.038 E0.17656
G1 X54.957 Y101.222 E0.08828
G1 X52.142 Y101.222 E0.08828
G1 X52.142 Y98.407 E0.08828
G1 X49.326 Y98.407 E0.08828
G1 X49.326 Y95.591 E0.08828
G1 X46.51 Y95.591 E0.08828
G1 X46.51 Y89.96 E0.17656
G1 X43.695 Y89.96 E0.08828
G1 X43.695 Y59.101 E0.96756
G1 X46.51 Y59.101 E0.08828
G1 X46.51 Y53.53 E0.17468
; acceleration to travel
G1 X94.521 Y80.782 F10200
; decel to extrusion
G1 X110.525 Y89.866
; end travel
G1 F1800
G1 X110.525 Y59.357 E0.95656
G1 X110.106 Y59.357 E0.01314
G1 X110.106 Y89.703 E0.95148
G1 X109.687 Y89.703 E0.01314
G1 X109.687 Y59.357 E0.95148
G1 X109.268 Y59.357 E0.01314
G1 X109.268 Y89.703 E0.95148
G1 X108.849 Y89.703 E0.01314
G1 X108.849 Y59.357 E0.95148
G1 X108.43 Y59.357 E0.01314
G1 X108.43 Y89.703 E0.95148
G1 X108.085 Y89.703 E0.01083
G1 X108.085 Y95.335 E0.17656
G1 X108.011 Y95.335 E0.00231
G1 X108.011 Y53.726 E1.30461
G1 X107.592 Y53.726 E0.01314
G1 X107.592 Y95.335 E1.30461
G1 X107.173 Y95.335 E0.01314
G1 X107.173 Y53.726 E1.30461
G1 X106.754 Y53.726 E0.01314
G1 X106.754 Y95.335 E1.30461
G1 X106.335 Y95.335 E0.01314
G1 X106.335 Y53.726 E1.30461
G1 X105.916 Y53.726 E0.01314
G1 X105.916 Y95.335 E1.30461
G1 X105.497 Y95.335 E0.01314
G1 X105.497 Y53.726 E1.30461
G1 X105.078 Y53.726 E0.01314
G1 X105.078 Y98.15 E1.39289
G1 X104.659 Y98.15 E0.01314
G1 X104.659 Y53.726 E1.39289
G1 X104.24 Y53.726 E0.01314
G1 X104.24 Y98.15 E1.39289
G1 X103.821 Y98.15 E0.01314
G1 X103.821 Y53.726 E1.39289
G1 X103.402 Y53.726 E0.01314
G1 X103.402 Y98.15 E1.39289
G1 X102.983 Y98.15 E0.01314
G1 X102.983 Y53.726 E1.39289
G1 X102.564 Y53.726 E0.01314
G1 X102.564 Y98.15 E1.39289
G1 X102.453 Y98.15 E0.00348
G1 X102.453 Y100.966 E0.08828
G1 X102.145 Y100.966 E0.00966
G1 X102.145 Y53.726 E1.48117
G1 X101.726 Y53.726 E0.01314
G1 X101.726 Y100.966 E1.48117
G1 X101.307 Y100.966 E0.01314
G1 X101.307 Y53.726 E1.48117
G1 X100.888 Y53.726 E0.01314
G1 X100.888 Y100.966 E1.48117
G1 X100.469 Y100.966 E0.01314
G1 X100.469 Y53.726 E1.48117
G1 X100.05 Y53.726 E0.01314
G1 X100.05 Y100.966 E1.48117
G1 X99.638 Y100.966 E0.01294
G1 X99.638 Y103.781 E0.08828
G1 X99.631 Y103.781 E0.0002
G1 X99.631 Y53.726 E1.56945
G1 X99.212 Y53.726 E0.01314
G1 X99.212 Y103.781 E1.56945
G1 X98.793 Y103.781 E0.01314
G1 X98.793 Y53.726 E1.56945
G1 X98.375 Y53.726 E0.01314
G1 X98.375 Y103.781 E1.56945
G1 X97.956 Y103.781 E0.01314
G1 X97.956 Y53.726 E1.56945
G1 X97.537 Y53.726 E0.01314
G1 X97.537 Y54.608 E0.02766
G1 X97.118 Y54.039 E0.02216
G1 X97.118 Y53.564 E0.0149
; acceleration to travel
G1 X97.432 Y91.349 F10200
; decel to extrusion
G1 X97.537 Y103.944
; end travel
G1 F1800
G1 X97.537 Y55.49 E1.51922
G1 X97.448 Y55.521 E0.00295
G1 X97.448 Y56.542 E0.032
G1 X97.118 Y56.542 E0.01035
G1 X97.118 Y103.781 E1.48117
G1 X96.699 Y103.781 E0.01314
G1 X96.699 Y56.542 E1.48117
G1 X96.28 Y56.542 E0.01314
G1 X96.28 Y103.781 E1.48117
G1 X95.861 Y103.781 E0.01314
G1 X95.861 Y56.542 E1.48117
G1 X95.442 Y56.542 E0.01314
G1 X95.442 Y103.781 E1.48117
G1 X95.023 Y103.781 E0.01314
G1 X95.023 Y56.542 E1.48117
G1 X94.604 Y56.542 E0.01314
G1 X94.604 Y103.781 E1.48117
G1 X94.185 Y103.781 E0.01314
G1 X94.185 Y56.542 E1.48117
G1 X94.006 Y56.542 E0.00559
G1 X94.006 Y53.726 E0.08828
G1 X93.766 Y53.726 E0.00755
G1 X93.766 Y106.597 E1.65773
G1 X93.347 Y106.597 E0.01314
G1 X93.347 Y53.726 E1.65773
G1 X92.928 Y53.726 E0.01314
G1 X92.928 Y106.597 E1.65773
G1 X92.509 Y106.597 E0.01314
G1 X92.509 Y53.726 E1.65773
G1 X92.09 Y53.726 E0.01314
G1 X92.09 Y106.597 E1.65773
G1 X91.671 Y106.597 E0.01314
G1 X91.671 Y53.726 E1.65773
G1 X91.252 Y53.726 E0.01314
G1 X91.252 Y106.597 E1.65773
G1 X90.833 Y106.597 E0.01314
G1 X90.833 Y50.91 E1.74601
G1 X90.414 Y50.91 E0.01314
G1 X90.414 Y106.597 E1.74601
G1 X89.995 Y106.597 E0.01314
G1 X89.995 Y50.91 E1.74601
G1 X89.576 Y50.91 E0.01314
G1 X89.576 Y106.597 E1.74601
G1 X89.157 Y106.597 E0.01314
G1 X89.157 Y50.91 E1.74601
G1 X88.738 Y50.91 E0.01314
G1 X88.738 Y104.556 E1.68201
G1 X88.47 Y104.299 E0.01163
G1 X88.319 Y104.303 E0.00473
G1 X88.319 Y50.91 E1.67408
G1 X87.9 Y50.91 E0.01314
G1 X87.9 Y104.313 E1.67438
G1 X87.481 Y104.322 E0.01314
G1 X87.481 Y50.91 E1.67469
G1 X87.062 Y50.91 E0.01314
G1 X87.062 Y104.332 E1.67499
G1 X86.643 Y104.342 E0.01314
G1 X86.643 Y50.91 E1.67529
G1 X86.224 Y50.91 E0.01314
G1 X86.224 Y104.351 E1.6756
G1 X85.805 Y104.361 E0.01314
G1 X85.805 Y50.91 E1.6759
G1 X85.386 Y50.91 E0.01314
G1 X85.386 Y104.37 E1.6762
G1 X84.967 Y104.38 E0.01314
G1 X84.967 Y50.91 E1.6765
G1 X84.548 Y50.91 E0.01314
G1 X84.548 Y104.39 E1.67681
G1 X84.129 Y104.399 E0.01314
G1 X84.129 Y50.91 E1.67711
G1 X83.71 Y50.91 E0.01314
G1 X83.71 Y104.409 E1.67741
G1 X83.291 Y104.419 E0.01314
G1 X83.291 Y50.91 E1.67771
G1 X82.872 Y50.91 E0.01314
G1 X82.872 Y104.428 E1.67802
G1 X82.453 Y104.438 E0.01314
G1 X82.453 Y50.91 E1.67832
G1 X82.034 Y50.91 E0.01314
G1 X82.034 Y104.448 E1.67862
G1 X81.615 Y104.457 E0.01314
G1 X81.615 Y50.91 E1.67893
G1 X81.196 Y50.91 E0.01314
G1 X81.196 Y104.467 E1.67923
G1 X80.777 Y104.477 E0.01314
G1 X80.777 Y50.91 E1.67953
G1 X80.359 Y50.91 E0.01314
G1 X80.359 Y104.486 E1.67983
G1 X79.94 Y104.496 E0.01314
G1 X79.94 Y50.91 E1.68014
G1 X79.521 Y50.91 E0.01314
G1 X79.521 Y104.506 E1.68044
G1 X79.102 Y104.515 E0.01314
G1 X79.102 Y50.91 E1.68074
G1 X78.683 Y50.91 E0.01314
G1 X78.683 Y104.525 E1.68105
G1 X78.264 Y104.535 E0.01314
G1 X78.264 Y50.91 E1.68135
G1 X77.845 Y50.91 E0.01314
G1 X77.845 Y104.544 E1.68165
G1 X77.732 Y104.547 E0.00355
G1 X77.426 Y104.867 E0.01388
G1 X77.426 Y50.91 E1.69176
G1 X77.007 Y50.91 E0.01314
G1 X77.007 Y109.412 E1.83426
G1 X77.426 Y109.412 E0.01314
G1 X77.426 Y107.097 E0.07256
G1 X77.796 Y107.452 E0.01606
G1 X77.845 Y107.451 E0.00154
G1 X77.845 Y109.412 E0.06149
G1 X78.264 Y109.412 E0.01314
G1 X78.264 Y107.442 E0.06176
G1 X78.683 Y107.433 E0.01314
G1 X78.683 Y109.412 E0.06203
G1 X79.102 Y109.411 E0.01314
G1 X79.102 Y107.424 E0.06231
G1 X79.521 Y107.415 E0.01314
G1 X79.521 Y109.411 E0.06258
G1 X79.94 Y109.411 E0.01314
G1 X79.94 Y107.244 E0.06794
; acceleration to travel
G1 X77.426 Y108.991 F10200
; decel to extrusion
G1 X76.588 Y109.574
; end travel
G1 F1800
G1 X76.588 Y50.91 E1.83935
G1 X76.169 Y50.91 E0.01314
G1 X76.169 Y109.412 E1.83427
G1 X75.75 Y109.412 E0.01314
G1 X75.75 Y50.91 E1.83427
G1 X75.331 Y50.91 E0.01314
G1 X75.331 Y109.412 E1.83427
G1 X74.912 Y109.412 E0.01314
G1 X74.912 Y50.91 E1.83427
G1 X74.493 Y50.91 E0.01314
G1 X74.493 Y109.412 E1.83427
G1 X74.074 Y109.412 E0.01314
G1 X74.074 Y50.91 E1.83427
G1 X73.655 Y50.91 E0.01314
G1 X73.655 Y109.412 E1.83427
G1 X73.236 Y109.412 E0.01314
G1 X73.236 Y50.91 E1.83427
G1 X72.817 Y50.91 E0.01314
G1 X72.817 Y109.412 E1.83428
G1 X72.398 Y109.412 E0.01314
G1 X72.398 Y50.91 E1.83428
G1 X71.979 Y50.91 E0.01314
G1 X71.979 Y109.412 E1.83428
G1 X71.56 Y109.412 E0.01314
G1 X71.56 Y50.91 E1.83428
G1 X71.141 Y50.91 E0.01314
G1 X71.141 Y109.412 E1.83428
G1 X70.722 Y109.412 E0.01314
G1 X70.722 Y50.91 E1.83428
G1 X70.303 Y50.91 E0.01314
G1 X70.303 Y109.412 E1.83428
G1 X69.884 Y109.412 E0.01314
G1 X69.884 Y50.91 E1.83428
G1 X69.465 Y50.91 E0.01314
G1 X69.465 Y109.412 E1.83429
G1 X69.046 Y109.412 E0.01314
G1 X69.046 Y50.91 E1.83429
G1 X68.627 Y50.91 E0.01314
G1 X68.627 Y109.412 E1.83429
G1 X68.208 Y109.413 E0.01314
G1 X68.208 Y50.91 E1.83429
G1 X67.789 Y50.91 E0.01314
G1 X67.789 Y109.413 E1.83429
G1 X67.37 Y109.413 E0.01314
G1 X67.37 Y50.91 E1.83429
G1 X66.951 Y50.91 E0.01314
G1 X66.951 Y109.413 E1.83429
G1 X66.532 Y109.413 E0.01314
G1 X66.532 Y50.91 E1.83429
G1 X66.113 Y50.91 E0.01314
G1 X66.113 Y109.413 E1.8343
G1 X65.694 Y109.413 E0.01314
G1 X65.694 Y50.91 E1.8343
G1 X65.275 Y50.91 E0.01314
G1 X65.275 Y109.413 E1.8343
G1 X64.856 Y109.413 E0.01314
G1 X64.856 Y50.91 E1.8343
G1 X64.437 Y50.91 E0.01314
G1 X64.437 Y109.413 E1.8343
G1 X64.018 Y109.413 E0.01314
G1 X64.018 Y50.91 E1.8343
G1 X63.66 Y50.91 E0.01122
G1 X63.66 Y53.726 E0.08828
G1 X63.599 Y53.726 E0.00191
G1 X63.599 Y106.597 E1.65773
G1 X63.18 Y106.597 E0.01314
G1 X63.18 Y53.726 E1.65773
G1 X62.761 Y53.726 E0.01314
G1 X62.761 Y106.597 E1.65773
G1 X62.342 Y106.597 E0.01314
G1 X62.342 Y53.726 E1.65773
G1 X61.924 Y53.726 E0.01314
G1 X61.924 Y106.597 E1.65773
G1 X61.505 Y106.597 E0.01314
G1 X61.505 Y53.726 E1.65773
G1 X61.086 Y53.726 E0.01314
G1 X61.086 Y106.597 E1.65773
G1 X60.845 Y106.597 E0.00755
G1 X60.845 Y103.781 E0.08828
G1 X60.667 Y103.781 E0.00559
G1 X60.667 Y56.542 E1.48117
G1 X60.248 Y56.542 E0.01314
G1 X60.248 Y103.781 E1.48117
G1 X59.829 Y103.781 E0.01314
G1 X59.829 Y56.542 E1.48117
G1 X59.41 Y56.542 E0.01314
G1 X59.41 Y103.781 E1.48117
G1 X58.991 Y103.781 E0.01314
G1 X58.991 Y56.542 E1.48117
G1 X58.572 Y56.542 E0.01314
G1 X58.572 Y103.781 E1.48117
G1 X58.153 Y103.781 E0.01314
G1 X58.153 Y56.542 E1.48117
G1 X57.734 Y56.542 E0.01314
G1 X57.734 Y103.781 E1.48117
G1 X57.315 Y103.781 E0.01314
G1 X57.315 Y55.313 E1.51969
G1 X57.734 Y54.443 F10200
G1 F1800
G1 X57.734 Y53.726 E0.02248
G1 X57.315 Y53.726 E0.01314
G1 X57.315 Y54.99 E0.03964
; acceleration to travel
G1 X57.001 Y91.705 F10200
; decel to extrusion
G1 X56.896 Y103.944
; end travel
G1 F1800
G1 X56.896 Y53.726 E1.57454
G1 X56.477 Y53.726 E0.01314
G1 X56.477 Y103.781 E1.56945
G1 X56.058 Y103.781 E0.01314
G1 X56.058 Y53.726 E1.56945
G1 X55.639 Y53.726 E0.01314
G1 X55.639 Y103.781 E1.56945
G1 X55.22 Y103.781 E0.01314
G1 X55.22 Y53.726 E1.56945
G1 X54.801 Y53.726 E0.01314
G1 X54.801 Y100.966 E1.48117
G1 X54.382 Y100.966 E0.01314
G1 X54.382 Y53.726 E1.48117
G1 X53.963 Y53.726 E0.01314
G1 X53.963 Y100.966 E1.48117
G1 X53.544 Y100.966 E0.01314
G1 X53.544 Y53.726 E1.48117
G1 X53.125 Y53.726 E0.01314
G1 X53.125 Y100.966 E1.48117
G1 X52.706 Y100.966 E0.01314
G1 X52.706 Y53.726 E1.48117
G1 X52.287 Y53.726 E0.01314
G1 X52.287 Y98.15 E1.39289
G1 X51.868 Y98.15 E0.01314
G1 X51.868 Y53.726 E1.39289
G1 X51.449 Y53.726 E0.01314
G1 X51.449 Y98.15 E1.39289
G1 X51.03 Y98.15 E0.01314
G1 X51.03 Y53.726 E1.39289
G1 X50.611 Y53.726 E0.01314
G1 X50.611 Y98.15 E1.39289
G1 X50.192 Y98.15 E0.01314
G1 X50.192 Y53.726 E1.39289
G1 X49.773 Y53.726 E0.01314
G1 X49.773 Y98.15 E1.39289
G1 X49.582 Y98.15 E0.00598
G1 X49.582 Y95.335 E0.08828
G1 X49.354 Y95.335 E0.00715
G1 X49.354 Y53.726 E1.30461
G1 X48.935 Y53.726 E0.01314
G1 X48.935 Y95.335 E1.30461
G1 X48.516 Y95.335 E0.01314
G1 X48.516 Y53.726 E1.30461
G1 X48.097 Y53.726 E0.01314
G1 X48.097 Y95.335 E1.30461
G1 X47.678 Y95.335 E0.01314
G1 X47.678 Y53.726 E1.30461
G1 X47.259 Y53.726 E0.01314
G1 X47.259 Y95.335 E1.30461
G1 X46.84 Y95.335 E0.01314
G1 X46.84 Y53.726 E1.30461
G1 X46.767 Y53.726 E0.00231
G1 X46.767 Y59.357 E0.17656
G1 X46.421 Y59.357 E0.01083
G1 X46.421 Y89.703 E0.95148
G1 X46.002 Y89.703 E0.01314
G1 X46.002 Y59.357 E0.95148
G1 X45.583 Y59.357 E0.01314
G1 X45.583 Y89.703 E0.95148
G1 X45.164 Y89.703 E0.01314
G1 X45.164 Y59.357 E0.95148
G1 X44.745 Y59.357 E0.01314
G1 X44.745 Y89.703 E0.95148
G1 X44.326 Y89.703 E0.01314
G1 X44.326 Y59.195 E0.95656
G1 E-4.9
;WIPE_START
G1 F8160
G1 X44.326 Y68.715 E-1.995
;WIPE_END
G1 E-0.105 F1800
G1 Z0.4 F10200
; acceleration to travel
G1 X74.6 Y101.595
; decel to extrusion
G1 X78.35 Y105.668
; end travel
G1 Z0.2
G1 E7 F1800
;TYPE:External perimeter
G1 X87.903 Y105.448 E0.29959
