; generated by SuperSlicer 2.4 on 2023-05-04 at 22:27:26 UTC

; 

; external perimeters extrusion width = 0.45mm
; perimeters extrusion width = 0.45mm
; infill extrusion width = 0.45mm
; solid infill extrusion width = 0.45mm
; top infill extrusion width = 0.40mm
; support material extrusion width = 0.38mm
; first layer extrusion width = 0.42mm

; object:{"name":"lid","id":"lid.stl id:0 copy 0","object_center":[52.995817,48.027061,0.000000],"boundingbox_center":[52.995817,48.027061,10.373567],"boundingbox_size":[59.997414,63.104389,20.747134]}
; Total objects to print: 1
M486 T1
; plater:{"center":[52.995817,48.027061,0.000000],"boundingbox_center":[52.995817,48.027061,10.373567],"boundingbox_size":[59.997414,63.104389,20.747134]}

M140 S60 ; set bed temperature
;TYPE:Custom
G21 ;metric values
G90 ;absolute positioning
M82 ;set extruder to absolute mode
M107 ;start with the fan off
M117 Homing X/Y ...
G28 X0 Y0 ;move X/Y to min endstops
M117 Homing Z ...
G28 Z0 ;move Z to min endstops
G1 Z15.0 F240 ;move the platform down 15mm
M117 Heating ...
M104 S210
 ; set extruder temp
M109 S210
 ; wait for extruder temp
M117 Start cleaning ...
G92 E0 ;zero the extruded length
G1 F200 E10 ;extrude 10mm of feed stock
G92 E0 ;zero the extruded length again
M117 Intro line ...
G1 Z2.0 F3000 ; Move Z Axis up little to prevent scratching of Heat Bed
G1 X0.1 Y20 Z0.2 F5000.0 ; Move to start position
G1 X0.1 Y200.0 Z0.2 F1500.0 E15 ; Draw the first line
G1 X0.4 Y200.0 Z0.2 F5000.0 ; Move to side a little
G1 X0.4 Y20 Z0.30.2 F1500.0 E30 ; Draw the second line
G92 E0 ; Reset Extruder
G1 E-1 F500 ; Retract filiment by 1 mm
G1 Z2.0 F3000 ; Move Z Axis up little to prevent scratching of Heat Bed
G1 X5 Y20 Z0.3 F240 ; Move over to prevent blob squish
G92 E0 ; Reset Extruder
M117 Printing...
M107
G21 ; set units to millimeters
G90 ; use absolute coordinates
M83 ; use relative distances for extrusion
; Filament gcode
;_TOOLCHANGE 0
M190 S60 ; set bed temperature and wait for it to be reached
M107
;LAYER_CHANGE
;Z:0.2
;HEIGHT:0.2
; BEFORE_LAYER_CHANGE 0 @ 0.2mm
G1 Z0.2 F10200
; AFTER_LAYER_CHANGE 0 @ 0.2mm
G92 E0
G1 E-7 F1800
G1 Z0.4 F10200
M204 P500 T500
G1 X20.972 Y23.769
G1 Z0.2
G1 E7 F1800
;TYPE:Skirt
;WIDTH:0.52
G1 X20.078 Y24.557 E0.04727
G1 X17.263 Y30.189 E0.24975
G1 X17.026 Y31.19 E0.0408
G1 X17.026 Y62.049 E1.22415
G1 X17.263 Y63.05 E0.0408
G1 X20.078 Y68.681 E0.24975
G1 X20.498 Y69.263 E0.02845
G1 X28.944 Y77.71 E0.47388
G1 X37.732 Y83.621 E0.42014
G1 X38.974 Y83.997 E0.05148
G1 X56.131 Y83.995 E0.6806
G1 X70.283 Y81.135 E0.57276
G1 X70.834 Y80.945 E0.02312
G1 X76.465 Y78.129 E0.24975
G1 X77.047 Y77.71 E0.02845
G1 X85.494 Y69.263 E0.47388
G1 X85.913 Y68.681 E0.02845
G1 X88.729 Y63.05 E0.24975
G1 X88.965 Y62.049 E0.0408
G1 X88.965 Y31.19 E1.22415
G1 X88.729 Y30.189 E0.0408
G1 X85.913 Y24.557 E0.24975
G1 X84.655 Y23.447 E0.06658
G1 X62.313 Y15.611 E0.93921
G1 X60.357 Y15.087 E0.08035
G1 X58.302 Y14.675 E0.08312
G1 X56.295 Y14.405 E0.08033
G1 X53.333 Y14.238 E0.11769
G1 X51.238 Y14.284 E0.08312
G1 X48.286 Y14.582 E0.11769
G1 X46.293 Y14.94 E0.08033
G1 X44.259 Y15.442 E0.08312
G1 X42.355 Y16.041 E0.0792
G1 X21.337 Y23.447 E0.88402
G1 X21.017 Y23.729 E0.01692
G1 E-4.9
;WIPE_START
G1 F8160
G1 X20.078 Y24.557 E-0.26229
G1 X17.263 Y30.189 E-1.31936
G1 X17.026 Y31.19 E-0.21556
G1 X17.026 Y32.134 E-0.19779
;WIPE_END
G1 E-0.105 F1800
G1 Z0.4 F10200
; printing object lid.stl id:0 copy 0
M486 S0
; acceleration to travel
G1 X21.523 Y26.283
; decel to extrusion
G1 X22.08 Y25.559
; end travel
G1 Z0.2
G1 E7 F1800
;TYPE:Support material
;WIDTH:0.42
G1 X34.168 Y25.559 E0.37898
G1 X32.844 Y27.288 E0.0683
G1 X33.23 Y27.42 E0.0128
G1 X33.23 Y28.374 E0.02991
G1 X36.159 Y28.374 E0.09182
G1 X36.159 Y25.559 E0.08828
G1 X38.974 Y25.559 E0.08828
G1 X38.974 Y22.743 E0.08828
G1 X67.017 Y22.743 E0.87928
G1 X67.017 Y25.559 E0.08828
G1 X69.833 Y25.559 E0.08828
G1 X69.833 Y28.374 E0.08828
G1 X72.762 Y28.374 E0.09182
G1 X72.762 Y27.428 E0.02967
G1 X73.211 Y27.271 E0.01492
G1 X71.95 Y25.559 E0.06668
G1 X83.911 Y25.559 E0.37502
G1 X83.911 Y31.19 E0.17656
G1 X86.727 Y31.19 E0.08828
G1 X86.727 Y62.049 E0.96756
G1 X83.911 Y62.049 E0.08828
G1 X83.911 Y67.68 E0.17656
G1 X81.096 Y67.68 E0.08828
G1 X81.096 Y70.496 E0.08828
G1 X78.28 Y70.496 E0.08828
G1 X78.28 Y73.311 E0.08828
G1 X75.464 Y73.311 E0.08828
G1 X75.464 Y76.127 E0.08828
G1 X69.833 Y76.127 E0.17656
G1 X69.833 Y78.942 E0.08828
G1 X64.106 Y78.942 E0.17955
G1 X64.376 Y78.661 E0.01223
G1 X64.359 Y77.854 E0.02529
G1 X64.34 Y77.03 E0.02585
G1 X63.94 Y76.647 E0.01738
G1 X53.414 Y76.89 E0.33012
G1 X53.031 Y77.29 E0.01735
G1 X53.067 Y78.899 E0.05047
G1 X53.466 Y79.282 E0.01735
G1 X56.075 Y79.227 E0.0818
G1 X56.131 Y81.757 E0.07933
G1 X38.974 Y81.758 E0.53794
G1 X38.974 Y78.942 E0.08829
G1 X36.159 Y78.942 E0.08828
G1 X36.159 Y76.127 E0.08828
G1 X30.527 Y76.127 E0.17656
G1 X30.527 Y73.311 E0.08828
G1 X27.712 Y73.311 E0.08828
G1 X27.712 Y70.496 E0.08828
G1 X24.896 Y70.496 E0.08828
G1 X24.896 Y67.68 E0.08828
G1 X22.08 Y67.68 E0.08828
G1 X22.08 Y62.049 E0.17656
G1 X19.265 Y62.049 E0.08828
G1 X19.265 Y31.19 E0.96756
G1 X22.08 Y31.19 E0.08828
G1 X22.08 Y25.619 E0.17468
; acceleration to travel
G1 X70.091 Y52.87 F10200
; decel to extrusion
G1 X86.095 Y61.954
; end travel
G1 F1800
G1 X86.095 Y31.446 E0.95656
G1 X85.676 Y31.446 E0.01314
G1 X85.676 Y61.792 E0.95148
G1 X85.257 Y61.792 E0.01314
G1 X85.257 Y31.446 E0.95148
G1 X84.838 Y31.446 E0.01314
G1 X84.838 Y61.792 E0.95148
G1 X84.419 Y61.792 E0.01314
G1 X84.419 Y31.446 E0.95148
G1 X84 Y31.446 E0.01314
G1 X84 Y61.792 E0.95148
G1 X83.655 Y61.792 E0.01083
G1 X83.655 Y67.423 E0.17656
G1 X83.581 Y67.423 E0.00231
G1 X83.581 Y25.815 E1.30461
G1 X83.162 Y25.815 E0.01314
G1 X83.162 Y67.423 E1.30461
G1 X82.743 Y67.423 E0.01314
G1 X82.743 Y25.815 E1.30461
G1 X82.324 Y25.815 E0.01314
G1 X82.324 Y67.423 E1.30461
G1 X81.905 Y67.423 E0.01314
G1 X81.905 Y25.815 E1.30461
G1 X81.486 Y25.815 E0.01314
G1 X81.486 Y67.423 E1.30461
G1 X81.067 Y67.423 E0.01314
G1 X81.067 Y25.815 E1.30461
G1 X80.648 Y25.815 E0.01314
G1 X80.648 Y70.239 E1.39289
G1 X80.229 Y70.239 E0.01314
G1 X80.229 Y25.815 E1.39289
G1 X79.81 Y25.815 E0.01314
G1 X79.81 Y70.239 E1.39289
G1 X79.391 Y70.239 E0.01314
G1 X79.391 Y25.815 E1.39289
G1 X78.972 Y25.815 E0.01314
G1 X78.972 Y70.239 E1.39289
G1 X78.553 Y70.239 E0.01314
G1 X78.553 Y25.815 E1.39289
G1 X78.134 Y25.815 E0.01314
G1 X78.134 Y70.239 E1.39289
G1 X78.023 Y70.239 E0.00348
G1 X78.023 Y73.055 E0.08828
G1 X77.715 Y73.055 E0.00966
G1 X77.715 Y25.815 E1.48117
G1 X77.296 Y25.815 E0.01314
G1 X77.296 Y73.055 E1.48117
G1 X76.878 Y73.055 E0.01314
G1 X76.878 Y25.815 E1.48117
G1 X76.459 Y25.815 E0.01314
G1 X76.459 Y73.055 E1.48117
G1 X76.04 Y73.055 E0.01314
G1 X76.04 Y25.815 E1.48117
G1 X75.621 Y25.815 E0.01314
G1 X75.621 Y73.055 E1.48117
G1 X75.208 Y73.055 E0.01294
G1 X75.208 Y75.87 E0.08828
G1 X75.202 Y75.87 E0.0002
G1 X75.202 Y25.815 E1.56945
G1 X74.783 Y25.815 E0.01314
G1 X74.783 Y75.87 E1.56945
G1 X74.364 Y75.87 E0.01314
G1 X74.364 Y25.815 E1.56945
G1 X73.945 Y25.815 E0.01314
G1 X73.945 Y75.87 E1.56945
G1 X73.526 Y75.87 E0.01314
G1 X73.526 Y25.815 E1.56945
G1 X73.107 Y25.815 E0.01314
G1 X73.107 Y26.697 E0.02766
G1 X72.688 Y26.128 E0.02216
G1 X72.688 Y25.653 E0.0149
; acceleration to travel
G1 X73.002 Y63.438 F10200
; decel to extrusion
G1 X73.107 Y76.032
; end travel
G1 F1800
G1 X73.107 Y27.579 E1.51922
G1 X73.018 Y27.61 E0.00295
G1 X73.018 Y28.631 E0.032
G1 X72.688 Y28.631 E0.01035
G1 X72.688 Y75.87 E1.48117
G1 X72.269 Y75.87 E0.01314
G1 X72.269 Y28.631 E1.48117
G1 X71.85 Y28.631 E0.01314
G1 X71.85 Y75.87 E1.48117
G1 X71.431 Y75.87 E0.01314
G1 X71.431 Y28.631 E1.48117
G1 X71.012 Y28.631 E0.01314
G1 X71.012 Y75.87 E1.48117
G1 X70.593 Y75.87 E0.01314
G1 X70.593 Y28.631 E1.48117
G1 X70.174 Y28.631 E0.01314
G1 X70.174 Y75.87 E1.48117
G1 X69.755 Y75.87 E0.01314
G1 X69.755 Y28.631 E1.48117
G1 X69.577 Y28.631 E0.00559
G1 X69.577 Y25.815 E0.08828
G1 X69.336 Y25.815 E0.00755
G1 X69.336 Y78.686 E1.65773
G1 X68.917 Y78.686 E0.01314
G1 X68.917 Y25.815 E1.65773
G1 X68.498 Y25.815 E0.01314
G1 X68.498 Y78.686 E1.65773
G1 X68.079 Y78.686 E0.01314
G1 X68.079 Y25.815 E1.65773
G1 X67.66 Y25.815 E0.01314
G1 X67.66 Y78.686 E1.65773
G1 X67.241 Y78.686 E0.01314
G1 X67.241 Y25.815 E1.65773
G1 X66.822 Y25.815 E0.01314
G1 X66.822 Y78.686 E1.65773
G1 X66.403 Y78.686 E0.01314
G1 X66.403 Y22.999 E1.74601
G1 X65.984 Y22.999 E0.01314
G1 X65.984 Y78.686 E1.74601
G1 X65.565 Y78.686 E0.01314
G1 X65.565 Y22.999 E1.74601
G1 X65.146 Y22.999 E0.01314
G1 X65.146 Y78.686 E1.74601
G1 X64.727 Y78.686 E0.01314
G1 X64.727 Y22.999 E1.74601
G1 X64.308 Y22.999 E0.01314
G1 X64.308 Y76.645 E1.68201
G1 X64.04 Y76.388 E0.01163
G1 X63.889 Y76.392 E0.00473
G1 X63.889 Y22.999 E1.67408
G1 X63.47 Y22.999 E0.01314
G1 X63.47 Y76.401 E1.67438
G1 X63.051 Y76.411 E0.01314
G1 X63.051 Y22.999 E1.67469
G1 X62.632 Y22.999 E0.01314
G1 X62.632 Y76.421 E1.67499
G1 X62.213 Y76.43 E0.01314
G1 X62.213 Y22.999 E1.67529
G1 X61.794 Y22.999 E0.01314
G1 X61.794 Y76.44 E1.6756
G1 X61.375 Y76.45 E0.01314
G1 X61.375 Y22.999 E1.6759
G1 X60.956 Y22.999 E0.01314
G1 X60.956 Y76.459 E1.6762
G1 X60.537 Y76.469 E0.01314
G1 X60.537 Y22.999 E1.6765
G1 X60.118 Y22.999 E0.01314
G1 X60.118 Y76.479 E1.67681
G1 X59.699 Y76.488 E0.01314
G1 X59.699 Y22.999 E1.67711
G1 X59.28 Y22.999 E0.01314
G1 X59.28 Y76.498 E1.67741
G1 X58.861 Y76.508 E0.01314
G1 X58.861 Y22.999 E1.67771
G1 X58.443 Y22.999 E0.01314
G1 X58.443 Y76.517 E1.67802
G1 X58.024 Y76.527 E0.01314
G1 X58.024 Y22.999 E1.67832
G1 X57.605 Y22.999 E0.01314
G1 X57.605 Y76.537 E1.67862
G1 X57.186 Y76.546 E0.01314
G1 X57.186 Y22.999 E1.67893
G1 X56.767 Y22.999 E0.01314
G1 X56.767 Y76.556 E1.67923
G1 X56.348 Y76.566 E0.01314
G1 X56.348 Y22.999 E1.67953
G1 X55.929 Y22.999 E0.01314
G1 X55.929 Y76.575 E1.67983
G1 X55.51 Y76.585 E0.01314
G1 X55.51 Y22.999 E1.68014
G1 X55.091 Y22.999 E0.01314
G1 X55.091 Y76.595 E1.68044
G1 X54.672 Y76.604 E0.01314
G1 X54.672 Y22.999 E1.68074
G1 X54.253 Y22.999 E0.01314
G1 X54.253 Y76.614 E1.68105
G1 X53.834 Y76.623 E0.01314
G1 X53.834 Y22.999 E1.68135
G1 X53.415 Y22.999 E0.01314
G1 X53.415 Y76.633 E1.68165
G1 X53.302 Y76.636 E0.00355
G1 X52.996 Y76.956 E0.01388
G1 X52.996 Y22.999 E1.69176
G1 X52.577 Y22.999 E0.01314
G1 X52.577 Y81.501 E1.83426
G1 X52.996 Y81.5 E0.01314
G1 X52.996 Y79.186 E0.07256
G1 X53.366 Y79.54 E0.01606
G1 X53.415 Y79.539 E0.00154
G1 X53.415 Y81.5 E0.06149
G1 X53.834 Y81.5 E0.01314
G1 X53.834 Y79.531 E0.06176
G1 X54.253 Y79.522 E0.01314
G1 X54.253 Y81.5 E0.06203
G1 X54.672 Y81.5 E0.01314
G1 X54.672 Y79.513 E0.06231
G1 X55.091 Y79.504 E0.01314
G1 X55.091 Y81.5 E0.06258
G1 X55.51 Y81.5 E0.01314
G1 X55.51 Y79.333 E0.06794
; acceleration to travel
G1 X52.996 Y81.08 F10200
; decel to extrusion
G1 X52.158 Y81.663
; end travel
G1 F1800
G1 X52.158 Y22.999 E1.83935
G1 X51.739 Y22.999 E0.01314
G1 X51.739 Y81.501 E1.83427
G1 X51.32 Y81.501 E0.01314
G1 X51.32 Y22.999 E1.83427
G1 X50.901 Y22.999 E0.01314
G1 X50.901 Y81.501 E1.83427
G1 X50.482 Y81.501 E0.01314
G1 X50.482 Y22.999 E1.83427
G1 X50.063 Y22.999 E0.01314
G1 X50.063 Y81.501 E1.83427
G1 X49.644 Y81.501 E0.01314
G1 X49.644 Y22.999 E1.83427
G1 X49.225 Y22.999 E0.01314
G1 X49.225 Y81.501 E1.83427
G1 X48.806 Y81.501 E0.01314
G1 X48.806 Y22.999 E1.83427
G1 X48.387 Y22.999 E0.01314
G1 X48.387 Y81.501 E1.83428
G1 X47.968 Y81.501 E0.01314
G1 X47.968 Y22.999 E1.83428
G1 X47.549 Y22.999 E0.01314
G1 X47.549 Y81.501 E1.83428
G1 X47.13 Y81.501 E0.01314
G1 X47.13 Y22.999 E1.83428
G1 X46.711 Y22.999 E0.01314
G1 X46.711 Y81.501 E1.83428
G1 X46.292 Y81.501 E0.01314
G1 X46.292 Y22.999 E1.83428
G1 X45.873 Y22.999 E0.01314
G1 X45.873 Y81.501 E1.83428
G1 X45.454 Y81.501 E0.01314
G1 X45.454 Y22.999 E1.83428
G1 X45.035 Y22.999 E0.01314
G1 X45.035 Y81.501 E1.83429
G1 X44.616 Y81.501 E0.01314
G1 X44.616 Y22.999 E1.83429
G1 X44.197 Y22.999 E0.01314
G1 X44.197 Y81.501 E1.83429
G1 X43.778 Y81.501 E0.01314
G1 X43.778 Y22.999 E1.83429
G1 X43.359 Y22.999 E0.01314
G1 X43.359 Y81.501 E1.83429
G1 X42.94 Y81.501 E0.01314
G1 X42.94 Y22.999 E1.83429
G1 X42.521 Y22.999 E0.01314
G1 X42.521 Y81.501 E1.83429
G1 X42.102 Y81.502 E0.01314
G1 X42.102 Y22.999 E1.83429
G1 X41.683 Y22.999 E0.01314
G1 X41.683 Y81.502 E1.8343
G1 X41.264 Y81.502 E0.01314
G1 X41.264 Y22.999 E1.8343
G1 X40.845 Y22.999 E0.01314
G1 X40.845 Y81.502 E1.8343
G1 X40.427 Y81.502 E0.01314
G1 X40.427 Y22.999 E1.8343
G1 X40.008 Y22.999 E0.01314
G1 X40.008 Y81.502 E1.8343
G1 X39.589 Y81.502 E0.01314
G1 X39.589 Y22.999 E1.8343
G1 X39.231 Y22.999 E0.01122
G1 X39.231 Y25.815 E0.08828
G1 X39.17 Y25.815 E0.00191
G1 X39.17 Y78.686 E1.65773
G1 X38.751 Y78.686 E0.01314
G1 X38.751 Y25.815 E1.65773
G1 X38.332 Y25.815 E0.01314
G1 X38.332 Y78.686 E1.65773
G1 X37.913 Y78.686 E0.01314
G1 X37.913 Y25.815 E1.65773
G1 X37.494 Y25.815 E0.01314
G1 X37.494 Y78.686 E1.65773
G1 X37.075 Y78.686 E0.01314
G1 X37.075 Y25.815 E1.65773
G1 X36.656 Y25.815 E0.01314
G1 X36.656 Y78.686 E1.65773
G1 X36.415 Y78.686 E0.00755
G1 X36.415 Y75.87 E0.08828
G1 X36.237 Y75.87 E0.00559
G1 X36.237 Y28.631 E1.48117
G1 X35.818 Y28.631 E0.01314
G1 X35.818 Y75.87 E1.48117
G1 X35.399 Y75.87 E0.01314
G1 X35.399 Y28.631 E1.48117
G1 X34.98 Y28.631 E0.01314
G1 X34.98 Y75.87 E1.48117
G1 X34.561 Y75.87 E0.01314
G1 X34.561 Y28.631 E1.48117
G1 X34.142 Y28.631 E0.01314
G1 X34.142 Y75.87 E1.48117
G1 X33.723 Y75.87 E0.01314
G1 X33.723 Y28.631 E1.48117
G1 X33.304 Y28.631 E0.01314
G1 X33.304 Y75.87 E1.48117
G1 X32.885 Y75.87 E0.01314
G1 X32.885 Y27.402 E1.51969
G1 X33.304 Y26.532 F10200
G1 F1800
G1 X33.304 Y25.815 E0.02248
G1 X32.885 Y25.815 E0.01314
G1 X32.885 Y27.079 E0.03964
; acceleration to travel
G1 X32.571 Y63.794 F10200
; decel to extrusion
G1 X32.466 Y76.032
; end travel
G1 F1800
G1 X32.466 Y25.815 E1.57454
G1 X32.047 Y25.815 E0.01314
G1 X32.047 Y75.87 E1.56945
G1 X31.628 Y75.87 E0.01314
G1 X31.628 Y25.815 E1.56945
G1 X31.209 Y25.815 E0.01314
G1 X31.209 Y75.87 E1.56945
G1 X30.79 Y75.87 E0.01314
G1 X30.79 Y25.815 E1.56945
G1 X30.371 Y25.815 E0.01314
G1 X30.371 Y73.055 E1.48117
G1 X29.952 Y73.055 E0.01314
G1 X29.952 Y25.815 E1.48117
G1 X29.533 Y25.815 E0.01314
G1 X29.533 Y73.055 E1.48117
G1 X29.114 Y73.055 E0.01314
G1 X29.114 Y25.815 E1.48117
G1 X28.695 Y25.815 E0.01314
G1 X28.695 Y73.055 E1.48117
G1 X28.276 Y73.055 E0.01314
G1 X28.276 Y25.815 E1.48117
G1 X27.857 Y25.815 E0.01314
G1 X27.857 Y70.239 E1.39289
G1 X27.438 Y70.239 E0.01314
G1 X27.438 Y25.815 E1.39289
G1 X27.019 Y25.815 E0.01314
G1 X27.019 Y70.239 E1.39289
G1 X26.6 Y70.239 E0.01314
G1 X26.6 Y25.815 E1.39289
G1 X26.181 Y25.815 E0.01314
G1 X26.181 Y70.239 E1.39289
G1 X25.762 Y70.239 E0.01314
G1 X25.762 Y25.815 E1.39289
G1 X25.343 Y25.815 E0.01314
G1 X25.343 Y70.239 E1.39289
G1 X25.152 Y70.239 E0.00598
G1 X25.152 Y67.423 E0.08828
G1 X24.924 Y67.423 E0.00715
G1 X24.924 Y25.815 E1.30461
G1 X24.505 Y25.815 E0.01314
G1 X24.505 Y67.423 E1.30461
G1 X24.086 Y67.423 E0.01314
G1 X24.086 Y25.815 E1.30461
G1 X23.667 Y25.815 E0.01314
G1 X23.667 Y67.423 E1.30461
G1 X23.248 Y67.423 E0.01314
G1 X23.248 Y25.815 E1.30461
G1 X22.829 Y25.815 E0.01314
G1 X22.829 Y67.423 E1.30461
G1 X22.41 Y67.423 E0.01314
G1 X22.41 Y25.815 E1.30461
G1 X22.337 Y25.815 E0.00231
G1 X22.337 Y31.446 E0.17656
G1 X21.992 Y31.446 E0.01083
G1 X21.992 Y61.792 E0.95148
G1 X21.573 Y61.792 E0.01314
G1 X21.573 Y31.446 E0.95148
G1 X21.154 Y31.446 E0.01314
G1 X21.154 Y61.792 E0.95148
G1 X20.735 Y61.792 E0.01314
G1 X20.735 Y31.446 E0.95148
G1 X20.316 Y31.446 E0.01314
G1 X20.316 Y61.792 E0.95148
G1 X19.897 Y61.792 E0.01314
G1 X19.897 Y31.284 E0.95656
G1 E-4.9
;WIPE_START
G1 F8160
G1 X19.897 Y40.804 E-1.995
;WIPE_END
G1 E-0.105 F1800
G1 Z0.4 F10200
; acceleration to travel
G1 X50.171 Y73.684
; decel to extrusion
G1 X53.92 Y77.757
; end travel
G1 Z0.2
G1 E7 F1800
;TYPE:External perimeter
G1 X63.473 Y77.537 E0.29959
G1 X63.487 Y78.193 E0.02058
G1 X53.934 Y78.393 E0.29959
G1 X53.922 Y77.817 E0.01808
;WIPE_START
G1 X54.271 Y77.949 F10200
;WIPE_END
G1 X54.101 Y78.071
;TYPE:Gap fill
;WIDTH:0.352015
G1 F1800
G1 X54.173 Y78.07 E0.00187
